!!!!SEGMENT: pl-wn--mus-i-5994-cim_sowinski-wojciech--invocation-a-la-patrie-d-ignace-krasicki.krn
!!!cenid: 18xx:3582
!!!COM: Sowiński, Wojciech
!!!COM-rismid: pe30008543
!!!CDT:
!!!CNT:
!!!OTL: Invocation a la Patrie d'Ignace Krasicki
!!!PDT: 1831
!!!AGN:
!!!SMS-siglum: PL-Wn
!!!SMS-shelfmark: Mus.I.5994 Cim.
!!!SMS-shelfwork: W
!!!SMS-variant:
!!!SMS-altvar:
!!!NIFC-rismid:
!!!URL-scan: https://polona.pl/item/invocation-a-la-patrie-d-ignace-krasicki-mise-en-musique-et-dediee-a-son-ami-antoine,NDUxNDE1OTM/0/#info:metadata
!!!ONB-nifc:
!!!OMD: Andante.
!!!key: C
**kern	**kern	**dynam	**kern	**text	**text
*part2	*part2	*part2	*part1	*part1	*part1
*staff3	*staff2	*	*staff1	*staff1	*staff1
*I"PIANO.	*I"PIANO.	*	*I"CHANT.	*	*
*Ipiano	*Ipiano	*	*Ivox	*	*
*ICklav	*ICklav	*	*ICvox	*	*
*clefF4	*clefG2	*	*clefG2	*	*
*k[]	*k[]	*	*k[]	*	*
*C:	*C:	*	*C:	*	*
*M4/4	*M4/4	*	*M4/4	*	*
*met(c)	*met(c)	*	*met(c)	*	*
=1	=1	=1	=1	=1	=1
*^	*	*	*	*	*
!LO:N:vis=2	!	!	!LO:DY:b:t=mf.:rj	!	!	!
(<8C/L	2C\	(4e/	mf	1r	.	.
8G/	.	.	.	.	.	.
8c/	.	8f/L	.	.	.	.
8G/J)	.	8f#X/J	.	.	.	.
!LO:N:vis=2	!	!	!	!	!	!
(<8C/L	2C\	4.g/)	.	.	.	.
8G/	.	.	.	.	.	.
8c/	.	.	.	.	.	.
8G/J)	.	8cc\	.	.	.	.
=2	=2	=2	=2	=2	=2	=2
(<8F/L	2C\	8.b^^>/L	.	1r	.	.
8G/	.	.	.	.	.	.
.	.	(<16b/K	.	.	.	.
8d/	.	8.a/)	.	.	.	.
8G/J)	.	.	.	.	.	.
.	.	16g/Jk	.	.	.	.
!	!	!	!LO:HP:a:t=cres.	!	!	!
8E/L	2C\	4.cc^^>\	<	.	.	.
8G/	.	.	.	.	.	.
8.c/	.	.	.	.	.	.
.	.	(<8e/	.	.	.	.
(<16E/Jk	.	.	.	.	.	.
*v	*v	*	*	*	*	*
=3	=3	=3	=3	=3	=3
8.G/L)	8.g/L)	.	1r	.	.
(<16C/K	(<16c/K	.	.	.	.
8.E/)	8.e/)	.	.	.	.
(<16GG/Jk	(<16G/Jk	.	.	.	.
!	!	!LO:DY:t=sf.	!	!	!
4C/)	4c^^>/)	sf	.	.	.
!	!	!LO:HP:a	!	!	!
4EE/	8B</L	>	.	.	.
.	8G#X</J	]]	.	.	.
=4	=4	=4	=4	=4	=4
4FF\	4A</	.	1r	.	.
(<4GG\	(<4F</ 4B< (<4d<	.	.	.	.
4C\)	4E</) 4c<)	.	.	.	.
4r	4r<	.	.	.	.
=5	=5	=5	=5	=5	=5
*	*	*	*	*	*above
!	!LO:TX:b:t=legato.	!	!LO:TX:t=P:problem:tekst polski nad nutami	!	!
2CC/ 2C	8c/L 8e	p	4e/	A-	Świę-
.	8G/	.	.	.	.
.	8d/ 8f	.	8f/	-mour	-ta
.	8d#X/J 8f#X	.	8f#X/	sa-	mi-
2CC/ 2C	8e/L 8g	.	4.g/	-cré	-łoś-
.	8G/	.	.	.	.
.	8c/ 8e	.	.	.	.
.	8G/J	.	8ee\	de	-ci
=6	=6	=6	=6	=6	=6
2CC/ 2C	8c/L 8f	.	8dd\	la	ko-
.	8A/	.	8cc\	dou-	-cha-
.	8c/ 8f	.	8b\	-ce	-nej
.	8A/J	.	8a/	pa-	oj-
2CC/ 2C	8c/L 8e	.	4a/	-tri-	-czyz-
.	8G/	.	.	.	.
.	8c/ 8e	.	4g/	-e	-ny
.	8G/J	.	.	.	.
!!LO:LB:g=original
=7	=7	=7	=7	=7	=7
2GGG/ 2GG	8d/L 8f	.	4f/	flam-	czu-
.	8G/	.	.	.	.
.	8B/ 8d	.	8d/	-me	-ją
.	8c/J 8e	.	8e/	qui	cię
2GGG/ 2GG	8d/L 8f	.	4.f/	brûle	tyl-
.	8G/	.	.	.	.
.	8d/ 8f	.	.	.	.
.	8G/J	.	8dd\	en	-ko
=8	=8	=8	=8	=8	=8
*	*	*	*^	*	*
2GGG/ 2GG	8B/L 8d	.	8b/	2ryy	des	u-
.	8G/	.	8g/	.	coe-	-my-
.	8B/ 8d	.	8a/	.	-urs	-sły
.	8G/J	.	8f/	.	gé-	pocz-
2CC/ 2C	8c/L 8e	.	4d#X/	2e\	-né-	-ci-
.	8G/	.	.	.	.	.
.	8c/ 8e	.	4e/	.	-reux	-we
.	8G/J	.	.	.	.	.
*	*	*	*v	*v	*	*
=9	=9	=9	=9	=9	=9
2CC/ 2C	8c/L 8e	.	4e/	par	dla
.	8G/	.	.	.	.
.	8d/ 8f	.	8f/	toi	cie-
.	8d#X/J 8f#X	.	8f#X/	des	-bie
2CC/ 2C	8e/L 8g	.	4.g/	fers	zja-
.	8G/	.	.	.	.
.	8c/ 8e	.	.	.	.
.	8G/J	.	8ee\	la	-dłe
=10	=10	=10	=10	=10	=10
2CC/ 2C	8c/L 8f	.	8dd\	main	sma-
.	8A/	.	8cc\	n'est	-ku-
.	8c/ 8f	.	8b\	pas	-ją
.	8A/J	.	8a/	flé-	tru-
4CC/ 4C	8c/L 8e	.	4.a/	-tri-	-ciz-
.	8G/	.	.	.	.
4r	8c/ 8e	.	.	.	.
.	8G/J	.	8g/	-e	-ny
=11	=11	=11	=11	=11	=11
2DD/ 2D	8r	.	4f#X/	les	dla
.	8A/L	.	.	.	.
.	8c/ 8d 8f#X	.	8ee\	noirs	cie-
.	8A/J	.	8ee\	poi-	-bie
2DD/ 2D	8B/L 8g	.	4.dd\	-sons	wię-
.	8d/	.	.	.	.
.	8B/	.	.	.	.
.	8G/J	.	8b\	de-	-zy
=12	=12	=12	=12	=12	=12
*	*	*	*^	*	*
!	!	!LO:DY:t=sf.	!	!	!	!
2DD/ 2D	8c/L 8d 8f#X	sf	8dd\	2ryy	-vien-	pę-
.	8A/	.	8cc\	.	-nent	-ta-
.	8c/ 8d 8f#	.	8e/	.	sa-	-nie
.	8A/J	.	8f#X/	.	-vou-	zel-
4GG/ 4G	8r	.	4a/	2g\	-reux	-ży-
.	8B/L	<	.	.	.	.
4r	8d/	.	4g/	.	.	-we
.	8g/J	[[	.	.	.	.
*	*	*	*v	*v	*	*
!!LO:LB:g=original
=13	=13	=13	=13	=13	=13
2GGG/ 2GG	8d/L 8fn	.	4fn/	tu	kształ-
.	8G/	.	.	.	.
.	8d/ 8f	.	8f/	sais	-cisz
.	8G/J	.	8f/	char-	ka-
2CC/ 2C	8c/L 8e	.	4.e/	-mer	-lec-
.	8G/	.	.	.	.
.	8e/ 8g	.	.	.	.
.	8G/J	.	8g/	la	-two
=14	=14	=14	=14	=14	=14
.	16qqg/	.	.	.	.
2GG/ 2G	(<8d/L 8f	.	8f/	bles-	przez
.	8c/ 8e	.	8e/	-su-	chwa-
.	8d/ 8f	.	8f/	-re	-le-
.	8e/J) 8g	.	8g/	cru-	-bne
4BBB/ 4BB	8d/L 8f	.	4f/	-el-	bli-
.	8G/	.	.	.	.
4CC/ 4C	8c/ 8e	.	4e/	-le	-zny
.	8G/J	.	.	.	.
=15	=15	=15	=15	=15	=15
!	!	!LO:DY:t=sf.	!	!	!
2DD/ 2D	8r	sf	4f#X/	tout	gniez-
.	8A/L	.	.	.	.
.	8c/ 8d 8f#X	.	8f#/	sem-	-dzisz
.	8A/J	.	8f#/	-bel-	wu-
2GG\ 2G	8d/L 8g	<	4.g/	-lit	-my-
.	8B/	.	.	.	.
.	8d/ 8g	.	.	.	.
.	8B/J	[[	8b\	par	-sle
=16	=16	=16	=16	=16	=16
*	*	*	*^	*	*
2DD/ 2D	8c/L 8d 8f#X	.	8dd\	2ryy	ton	roz-
.	8A/	.	8cc#X\	.	no-	-ko-
.	8c/ 8d 8f#	.	8ccn\	.	-ble	-szy
!	!	!LO:DY:t=sf.:b=2	!	!	!	!
.	8A/J	sf	8f#X/	.	trans-	praw-
4GGG;>/ 4GG	(<8G:/L 8B: 8d: 8g:	.	4a/	2g;>\	-port	-di-
.	8f#X/	pp	.	.	.	.
4r	8fn/	.	4g/	.	.	-we
.	8d/J)	.	.	.	.	.
*	*	*	*v	*v	*	*
=17	=17	=17	=17	=17	=17
2CC/ 2C	8c/L 8e	.	4e/	et	by-
.	8G/	.	.	.	.
.	8d/ 8f	.	8f/	sans	-le
.	8d#X/J 8f#X	.	8f#X/	re-	cię
2CC/ 2C	8e/L 8g	.	4.g/	-gret	tyl-
.	8G/	.	.	.	.
.	8c/ 8e	.	.	.	.
.	8G/J	.	8ee\	quand	-ko
=18	=18	=18	=18	=18	=18
!	!	!LO:DY:t=sf.	!	!	!
2EE/ 2E	8r	sf	8ee\	ta	wspo-
.	8B/L	.	8dd\	voix	-modz
.	8d/ 8e 8g#X	.	8cc\	nous	by-
.	8B/J	.	8b\	ap-	-le
2AA/ 2A	8r	.	4dd\	-pel-	wpie-
.	8c/L	<	.	.	.
.	8e/ 8a	.	4cc\	-le	-rać
.	8c/J	[[	.	.	.
!!LO:LB:g=original
=19	=19	=19	=19	=19	=19
!	!LO:TX:b:t=ten.	!	!	!	!
2FF/ 2F	8r	.	4cc\	on	nie
.	8A/L	.	.	.	.
.	8c/ 8f 8a	.	8b\	court	żal
.	8A/J	.	8a/	bra-	żyć-
2GG/	8c/L 8e	.	4.g/	-ver	-wnę-
.	8G/	.	.	.	.
.	8e/ 8g	.	.	.	.
.	8G/J	.	8cc\	la	-dzy
=20	=20	=20	=20	=20	=20
*	*	*	*^	*	*
2GGG/ 2GG	8d/L 8f	.	8b\	2ryy	mi-	nie
.	8G/	.	8b\	.	-sè-	żal
.	8d/ 8f	.	8cc\	.	-re	i
.	8G/J	.	8dd\	.	et	u-
4CC/	8B/L 8d#X	.	4dd#X/	2ee\	la	-mie-
.	8G/	.	.	.	.	.
4r	8c/ 8e	.	4ee/	.	mort	-rać
.	8G/J	.	.	.	.	.
*	*	*	*v	*v	*	*
=21	=21	=21	=21	=21	=21
!	!	!LO:DY:t=sf.	!	!	!
2FFF/ 2FF	8r	sf	4ff\	on	nie
.	8A/L	<	.	.	.
.	8d/ 8f 8a	.	8ee\	court	żal
.	8A/J	[	8dd\	bra-	żyć
2GGG/ 2GG	8c/L 8e 8g	.	4.gg\	-ver	wnę-
.	8G/	.	.	.	.
.	8c/ 8e 8g	.	.	.	.
.	8G/J	.	(>16ee\	la	-dzy
.	.	.	16dd\)	mi-	.
=22	=22	=22	=22	=22	=22
*	*	*	*^	*	*
*	*	*^	*	*	*	*
!	!	!	!LO:HP:b:t=dim.	!	!	!	!
!	!	!	!LO:DY:t=sf.:rj	!	!	!	!
2GG\ 2G	8B/L 8d	>	sf >	8g/	2ryy	-sè-	nie
.	8B/ 8g	.	.	8g/	.	-re	żal
.	8A/ 8f#X	.	.	8a/	.	et	i
.	8B/J 8fn	]	.	8b/	.	la	u-
4E\	8c/L 8e	.	.	4dd/	2cc\	mort.	-mie-
.	8G/	.	.	.	.	.	.
4r	8c/	.	.	8cc/	.	.	-rać.
.	8e/J	.	.	8r	.	.	.
*	*	*v	*v	*	*	*	*
*	*	*	*v	*v	*	*
=23	=23	=23	=23	=23	=23
8GG\L	4B/ 4g	<	1r	.	.
8G\J	.	.	.	.	.
8FF#X\L	4c/ 4a	.	.	.	.
8F#X\J	.	.	.	.	.
8FFn\L	4d/ 4b	.	.	.	.
8Fn\J	.	.	.	.	.
8EE\L	4c/ 4g 4cc	[[	.	.	.
8E\J	.	.	.	.	.
=24	=24	=24	=24	=24	=24
4FF/ 4F	8.c/L 8.f 8.b	>	1r	.	.
.	16a/Jk	.	.	.	.
4GG/ 4G	4c/ 4e 4a	]	.	.	.
4GGG/ 4GG	8.f/L	.	.	.	.
.	16F</Jk 16B<	.	.	.	.
4CC\ 4C	4E</ 4c	.	.	.	.
==	==	==	==	==	==
*-	*-	*-	*-	*-	*-
!!!system-decoration: (s1){(s2,s3)}
!!!RDF**kern: < = below
!!!RDF**kern: > = above
!!!ENC: Berenika Jozajtis
!!!END: 2022-02-06
!!!AIN: 1 piano 1 vox
!!!ENC: Marta Chmielewska
!!!END: 2022-02-15
